X:2
T:Polska e. P\aal-Nilsson (F\"ollinge)
Z:2006 Brian Wilson <Brian.Wilson@alumni.brown.edu>
Z:Jonssonlinjen, Musik f\"or hj\"artat och sulan, Track 29
M:9/8
L:1/8
K:A
|: "A"e2c A(cA) E3 | "A7"(ABc) "D/A"d2f f2e \
|  "A"c2d "E/A"B(dB) "A"A(cA) | "E"G2B "E/F#"B2A "A/G#"A2c |
|  "A"e2c A(cA) E3 | "A7"(ABc) "D/A"d2f f2e \
|  "A"c2d "E/A"B(dB) "A"A(cA) | "E"(GB2) "A"A6 :|
|: "A7"(A2c) (c2d) d2e | "G"=g(ag) f(ed) "D/A"d2e \
|  "A"c2e "D"d2f "D/A"(~f2e) | "A/E"(c2A) "E/F#"G2B "E/G#"(~B2A) |
|  "A7"(A2c) c2d d2e | "G"=g(ag) f(ed) "D/A"d2e \
|  "A"c2e "D"d2f "D/A"f2d | "G"(f=gf) "E"e6 :|


